styles/1/Numix/64/places/yellow-folder-saved-search.svg

<?xml version="1.0" encoding="UTF-8" standalone="no"?>
<!-- Created with Inkscape (http://www.inkscape.org/) -->

<svg
   xmlns:dc="http://purl.org/dc/elements/1.1/"
   xmlns:cc="http://creativecommons.org/ns#"
   xmlns:rdf="http://www.w3.org/1999/02/22-rdf-syntax-ns#"
   xmlns:svg="http://www.w3.org/2000/svg"
   xmlns="http://www.w3.org/2000/svg"
   xmlns:sodipodi="http://sodipodi.sourceforge.net/DTD/sodipodi-0.dtd"
   xmlns:inkscape="http://www.inkscape.org/namespaces/inkscape"
   width="64"
   height="64"
   id="svg2"
   version="1.1"
   inkscape:version="0.91 r"
   sodipodi:docname="yellow-folder-saved-search.svg"
   inkscape:export-filename="/media/Data/Main/Visuals/Icons/Numix/Desktop/repos/numix-wiki/Gjorgi/Numix-folders/48/New/folder-144.png"
   inkscape:export-xdpi="270"
   inkscape:export-ydpi="270">
  <defs
     id="defs4" />
  <sodipodi:namedview
     id="base"
     pagecolor="#ffffff"
     bordercolor="#666666"
     borderopacity="1.0"
     inkscape:pageopacity="0.0"
     inkscape:pageshadow="2"
     inkscape:zoom="3.0300001"
     inkscape:cx="6.1710061"
     inkscape:cy="-18.121997"
     inkscape:document-units="px"
     inkscape:current-layer="layer1"
     showgrid="true"
     inkscape:window-width="1280"
     inkscape:window-height="998"
     inkscape:window-x="0"
     inkscape:window-y="0"
     inkscape:window-maximized="1"
     showguides="true"
     inkscape:guide-bbox="true">
    <inkscape:grid
       type="xygrid"
       id="grid2985"
       empspacing="5"
       visible="true"
       enabled="true"
       snapvisiblegridlinesonly="true" />
  </sodipodi:namedview>
  <metadata
     id="metadata7">
    <rdf:RDF>
      <cc:Work
         rdf:about="">
        <dc:format>image/svg+xml</dc:format>
        <dc:type
           rdf:resource="http://purl.org/dc/dcmitype/StillImage" />
        <dc:title />
      </cc:Work>
    </rdf:RDF>
  </metadata>
  <g
     inkscape:label="Layer 1"
     inkscape:groupmode="layer"
     id="layer1"
     transform="translate(0,-988.3622)">
    <path
       style="font-size:medium;font-style:normal;font-variant:normal;font-weight:normal;font-stretch:normal;text-indent:0;text-align:start;text-decoration:none;line-height:normal;letter-spacing:normal;word-spacing:normal;text-transform:none;direction:ltr;block-progression:tb;writing-mode:lr-tb;text-anchor:start;baseline-shift:baseline;color:#000000;fill:#ffca28;fill-opacity:1;fill-rule:nonzero;stroke:none;stroke-width:2.28612947;marker:none;visibility:visible;display:inline;overflow:visible;enable-background:accumulate;font-family:Sans;-inkscape-font-specification:Sans"
       d="M 6.0625 10 C 4.933085 10.1109 3.981587 11.17777 4 12.3125 L 4 51.6875 C 3.986 52.9021 5.097925 54.0139 6.3125 54 L 57.6875 54 C 58.902076 54.014 60.013966 52.9021 60 51.6875 L 60 16.3125 C 60.014 15.0979 58.902076 13.9861 57.6875 14 L 38 14 L 38 12.3125 C 38.01375 11.11867 36.943717 10.019 35.75 10 L 6.3125 10 C 6.22925 10 6.14575 9.9999 6.0625 10 z M 36 20 C 41.522847 20 46 24.4772 46 30 C 46 35.5228 41.522847 40 36 40 C 33.904199 40 31.950866 39.352 30.34375 38.25 C 30.245816 38.4907 30.102119 38.7417 29.90625 38.9375 L 21.40625 47.40625 C 20.622776 48.18975 19.377224 48.18975 18.59375 47.40625 C 17.810276 46.62275 17.810276 45.37725 18.59375 44.59375 L 27.0625 36.09375 C 27.258369 35.89785 27.509319 35.75425 27.75 35.65625 C 26.648062 34.04915 26 32.0958 26 30 C 26 24.4772 30.477153 20 36 20 z M 36 23 C 32.134007 23 29 26.134 29 30 C 29 33.866 32.134007 37 36 37 C 39.865993 37 43 33.866 43 30 C 43 26.134 39.865993 23 36 23 z "
       transform="translate(0,988.3622)"
       id="path3912" />
  </g>
</svg>

<!-- Created with Inkscape (http://www.inkscape.org/) -->
<svg xmlns="http://www.w3.org/2000/svg" viewBox="0 0 64 64">
 <g transform="translate(0,-988.3622)">
  <path d="m 6.06 10 c -1.129 0.111 -2.081 1.178 -2.063 2.313 l 0 39.38 c -0.014 1.215 1.098 2.326 2.313 2.313 l 51.38 0 c 1.215 0.014 2.326 -1.098 2.313 -2.313 l 0 -35.37 c 0.014 -1.215 -1.098 -2.326 -2.313 -2.313 l -19.688 0 l 0 -1.688 c 0.014 -1.194 -1.056 -2.294 -2.25 -2.313 l -29.438 0 c -0.083 0 -0.167 0 -0.25 0 z m 29.938 10 c 5.523 0 10 4.477 10 10 c 0 5.523 -4.477 10 -10 10 c -2.096 0 -4.049 -0.648 -5.656 -1.75 c -0.098 0.241 -0.242 0.492 -0.438 0.688 l -8.5 8.469 c -0.783 0.783 -2.029 0.783 -2.813 0 c -0.783 -0.783 -0.783 -2.029 0 -2.813 l 8.469 -8.5 c 0.196 -0.196 0.447 -0.34 0.688 -0.438 c -1.102 -1.607 -1.75 -3.56 -1.75 -5.656 c 0 -5.523 4.477 -10 10 -10 z m 0 3 c -3.866 0 -7 3.134 -7 7 c 0 3.866 3.134 7 7 7 c 3.866 0 7 -3.134 7 -7 c 0 -3.866 -3.134 -7 -7 -7 z" transform="translate(0,988.3622)" style="visibility:visible;fill:#ffca28;fill-opacity:1;stroke:none;display:inline;color:#000;fill-rule:nonzero"/>
 </g>
</svg>
